svgs/sharp-light/objects-align-top.svg

<svg xmlns="http://www.w3.org/2000/svg" viewBox="0 0 512 512"><!--! Font Awesome Pro 6.6.0 by @fontawesome - https://fontawesome.com License - https://fontawesome.com/license (Commercial License) Copyright 2024 Fonticons, Inc. --><path d="M512 0L0 0 0 32l512 0 0-32zM192 160l0 320-96 0 0-320 96 0zM96 128l-32 0 0 32 0 320 0 32 32 0 96 0 32 0 0-32 0-320 0-32-32 0-96 0zm320 32l0 192-96 0 0-192 96 0zm-96-32l-32 0 0 32 0 192 0 32 32 0 96 0 32 0 0-32 0-192 0-32-32 0-96 0z"/></svg>

<svg xmlns="http://www.w3.org/2000/svg" viewBox="0 0 512 512"><!--! Font Awesome Pro 6.4.2 by @fontawesome - https://fontawesome.com License - https://fontawesome.com/license (Commercial License) Copyright 2023 Fonticons, Inc. --><path d="M512 0L0 0 0 32l512 0V0zM192 160l0 320-96 0 0-320h96zM96 128l-32 0 0 32 0 320 0 32H96h96 32V480l0-320V128H192 96zm320 32l0 192H320l0-192h96zm-96-32H288v32l0 192v32h32 96 32V352l0-192V128l-32 0H320z"/></svg>
